icons/evolvere-blue-folders-flat-vivid-dark-fallback/apps/64/choqok.svg

<?xml version="1.0" encoding="UTF-8" standalone="no"?>
<!-- Created with Inkscape (http://www.inkscape.org/) -->

<svg
   xmlns:dc="http://purl.org/dc/elements/1.1/"
   xmlns:cc="http://creativecommons.org/ns#"
   xmlns:rdf="http://www.w3.org/1999/02/22-rdf-syntax-ns#"
   xmlns:svg="http://www.w3.org/2000/svg"
   xmlns="http://www.w3.org/2000/svg"
   xmlns:sodipodi="http://sodipodi.sourceforge.net/DTD/sodipodi-0.dtd"
   xmlns:inkscape="http://www.inkscape.org/namespaces/inkscape"
   width="64"
   height="64"
   id="svg13094"
   version="1.1"
   inkscape:version="0.91+devel r"
   sodipodi:docname="choqok.svg">
  <sodipodi:namedview
     id="base"
     pagecolor="#ffffff"
     bordercolor="#666666"
     borderopacity="1.0"
     inkscape:pageopacity="0"
     inkscape:pageshadow="2"
     inkscape:zoom="11.313709"
     inkscape:cx="27.981782"
     inkscape:cy="31.598663"
     inkscape:document-units="px"
     inkscape:current-layer="svg13094"
     showgrid="true"
     inkscape:snap-bbox="true"
     inkscape:bbox-paths="true"
     inkscape:bbox-nodes="true"
     inkscape:snap-bbox-edge-midpoints="true"
     inkscape:snap-bbox-midpoints="true"
     inkscape:object-paths="true"
     inkscape:snap-intersection-paths="true"
     inkscape:object-nodes="true"
     inkscape:snap-smooth-nodes="true"
     inkscape:snap-midpoints="true"
     inkscape:snap-object-midpoints="true"
     inkscape:snap-center="true"
     showguides="true"
     inkscape:guide-bbox="true"
     inkscape:window-width="1920"
     inkscape:window-height="1023"
     inkscape:window-x="-10"
     inkscape:window-y="35"
     inkscape:window-maximized="1"
     inkscape:snap-global="false"
     fit-margin-top="0"
     fit-margin-left="0"
     fit-margin-right="0"
     fit-margin-bottom="0"
     showborder="true"
     inkscape:showpageshadow="false"
     inkscape:snap-page="true">
    <inkscape:grid
       type="xygrid"
       id="grid3075"
       empspacing="5"
       visible="true"
       enabled="true"
       snapvisiblegridlinesonly="true"
       originx="0px"
       originy="18px" />
  </sodipodi:namedview>
  <defs
     id="defs13096" />
  <metadata
     id="metadata13099">
    <rdf:RDF>
      <cc:Work
         rdf:about="">
        <dc:format>image/svg+xml</dc:format>
        <dc:type
           rdf:resource="http://purl.org/dc/dcmitype/StillImage" />
        <dc:title></dc:title>
      </cc:Work>
    </rdf:RDF>
  </metadata>
  <path
     style="color:#000000;fill:#8ac028;fill-opacity:1;fill-rule:nonzero;stroke:none;stroke-width:2.28571415;marker:none;visibility:visible;display:inline;overflow:visible;enable-background:accumulate"
     d="M 0 4 L 0 34 L 0 62 L 2 64 L 32 64 L 62 64 L 64 62 L 64 34 L 64 4 L 32 4 L 0 4 z "
     id="path3056" />
  <path
     style="color:#000000;fill:#c1ff49;fill-opacity:1;fill-rule:nonzero;stroke:none;stroke-width:2.28571415;marker:none;visibility:visible;display:inline;overflow:visible;enable-background:accumulate"
     d="M 2 0 L 0 1 L 0 4 L 32 4 L 64 4 L 64 1 L 62 0 L 32 0 L 2 0 z "
     id="path3029" />
  <path
     style="fill:#d0ff75;fill-opacity:1;fill-rule:nonzero"
     d="M 0,3 0,6 2,4 Z"
     id="path4298"
     inkscape:connector-curvature="0"
     sodipodi:nodetypes="cccc" />
  <path
     d="M 64,6 62,4 64,3 z"
     id="path3028"
     style="fill:#a7e139;fill-opacity:1"
     inkscape:connector-curvature="0" />
  <g
     id="g3043"
     inkscape:export-filename="folder.png"
     inkscape:export-xdpi="90"
     inkscape:export-ydpi="90"
     transform="translate(-0.625,0.082283)" />
  <g
     id="scalable"
     transform="matrix(1.0385892,0,0,1.0385892,1214.7222,1878.8121)"
     inkscape:label="#g3701"
     style="fill:#ffffff" />
  <path
     style="color:#000000;display:inline;overflow:visible;visibility:visible;fill:#2a8200;fill-opacity:0.30411449;fill-rule:nonzero;stroke:none;stroke-width:2.28571415;marker:none;enable-background:accumulate"
     d="M 27.173209,8 C 29.434423,3.3915167 32.896673,3.4852725 37.660199,2.0554564 35.735811,4.8190811 32.489436,5.0087243 32.079617,8.8509515 Z"
     id="path3014"
     inkscape:connector-curvature="0"
     sodipodi:nodetypes="cccc" />
  <path
     sodipodi:nodetypes="cccc"
     inkscape:connector-curvature="0"
     id="path4236"
     d="M 27.173209,8 C 29.434423,3.3915167 30.896673,1.4852725 35.660199,0.05545644 33.735811,2.8190811 32.489436,5.0087243 32.079617,8.8509515 Z"
     style="color:#000000;display:inline;overflow:visible;visibility:visible;fill:#8ac028;fill-opacity:1;fill-rule:nonzero;stroke:none;stroke-width:2.28571415;marker:none;enable-background:accumulate" />
  <path
     sodipodi:nodetypes="cccc"
     inkscape:connector-curvature="0"
     id="path5258"
     d="M 27.784234,9.6200446 C 33.656335,5.5870702 42.464445,5.8928166 50.630296,7.590941 46.599859,9.8338325 40.381323,9.655679 37.16941,13.730693 Z"
     style="color:#000000;display:inline;overflow:visible;visibility:visible;fill:#2a8200;fill-opacity:0.30411449;fill-rule:nonzero;stroke:none;stroke-width:2.28571415;marker:none;enable-background:accumulate" />
  <path
     style="color:#000000;display:inline;overflow:visible;visibility:visible;fill:#8ac028;fill-opacity:1;fill-rule:nonzero;stroke:none;stroke-width:2.28571415;marker:none;enable-background:accumulate"
     d="M 27.784234,9.6200446 C 33.656335,5.5870702 40.464445,3.8928166 48.630296,5.590941 44.599859,7.8338325 40.381323,9.655679 37.16941,13.730693 Z"
     id="path4238"
     inkscape:connector-curvature="0"
     sodipodi:nodetypes="cccc" />
  <path
     sodipodi:nodetypes="cc"
     inkscape:connector-curvature="0"
     id="path3803"
     d="M 17.968548,20.667411 C 15.859305,20.406437 15.298061,17.631425 16.245523,15.513449"
     style="color:#000000;fill:none;stroke:#548617;stroke-width:0.99999994;stroke-miterlimit:4;stroke-dasharray:none;marker:none;visibility:visible;display:inline;overflow:visible;enable-background:accumulate;stroke-opacity:1" />
  <path
     style="color:#000000;fill:none;stroke:#548617;stroke-width:0.99999994;stroke-miterlimit:4;stroke-dasharray:none;marker:none;visibility:visible;display:inline;overflow:visible;enable-background:accumulate;stroke-opacity:1"
     d="M 15.535486,21.249959 C 13.426241,20.988984 12.548284,17.294831 13.495741,15.176858"
     id="path3805"
     inkscape:connector-curvature="0"
     sodipodi:nodetypes="cc" />
  <path
     style="color:#000000;fill:none;stroke:#548617;stroke-width:0.99999994;stroke-miterlimit:4;stroke-dasharray:none;marker:none;visibility:visible;display:inline;overflow:visible;enable-background:accumulate;stroke-opacity:1"
     d="m 13.596438,23.112516 c -2.109246,-0.260973 -3.38722,-2.619387 -3.19881,-4.63562"
     id="path3807"
     inkscape:connector-curvature="0"
     sodipodi:nodetypes="cc" />
  <path
     sodipodi:type="arc"
     style="color:#000000;fill:#e2ecd9;fill-opacity:1;fill-rule:nonzero;stroke:none;stroke-width:2.28571415;marker:none;visibility:visible;display:inline;overflow:visible;enable-background:accumulate"
     id="path5213"
     sodipodi:cx="93.5"
     sodipodi:cy="31.5"
     sodipodi:rx="6.5"
     sodipodi:ry="8.5"
     d="m 100,31.5 a 6.5,8.5 0 1 1 -13,0 6.5,8.5 0 1 1 13,0 z"
     transform="matrix(0.92233165,-0.34600265,0.34628554,0.91928954,-77.848218,31.106519)" />
  <path
     sodipodi:type="arc"
     style="color:#000000;fill:#2a3c1f;fill-opacity:1;fill-rule:nonzero;stroke:none;stroke-width:2.28571415;marker:none;visibility:visible;display:inline;overflow:visible;enable-background:accumulate"
     id="path4925"
     sodipodi:cx="95.282631"
     sodipodi:cy="34.389904"
     sodipodi:rx="4.5078053"
     sodipodi:ry="4.5078053"
     d="m 99.790436,34.389904 a 4.5078053,4.5078053 0 1 1 -9.01561,0 4.5078053,4.5078053 0 1 1 9.01561,0 z"
     transform="matrix(0.97447954,-0.13079658,0.13039099,0.97145778,-76.552814,10.11942)" />
  <path
     sodipodi:type="arc"
     style="color:#000000;fill:#e2ecd9;fill-opacity:1;fill-rule:nonzero;stroke:none;stroke-width:2.28571415;marker:none;visibility:visible;display:inline;overflow:visible;enable-background:accumulate"
     id="path4927"
     sodipodi:cx="95.282631"
     sodipodi:cy="34.389904"
     sodipodi:rx="4.5078053"
     sodipodi:ry="4.5078053"
     d="m 99.790436,34.389904 a 4.5078053,4.5078053 0 1 1 -9.01561,0 4.5078053,4.5078053 0 1 1 9.01561,0 z"
     transform="matrix(0.43848633,-0.05885452,0.05867202,0.43712664,-23.015562,19.828226)" />
  <path
     transform="matrix(0.16561707,-0.02222946,0.02216053,0.16510352,4.2397648,30.377925)"
     d="m 99.790436,34.389904 a 4.5078053,4.5078053 0 1 1 -9.01561,0 4.5078053,4.5078053 0 1 1 9.01561,0 z"
     sodipodi:ry="4.5078053"
     sodipodi:rx="4.5078053"
     sodipodi:cy="34.389904"
     sodipodi:cx="95.282631"
     id="path3811"
     style="color:#000000;fill:#abff5e;fill-opacity:0.70661896;fill-rule:nonzero;stroke:none;stroke-width:2.28571415;marker:none;visibility:visible;display:inline;overflow:visible;enable-background:accumulate"
     sodipodi:type="arc" />
  <path
     style="color:#000000;fill:none;stroke:#548617;stroke-width:0.99999994;stroke-miterlimit:4;stroke-dasharray:none;marker:none;visibility:visible;display:inline;overflow:visible;enable-background:accumulate;stroke-opacity:1"
     d="m 46.031453,20.667411 c 2.109243,-0.260974 2.670486,-3.035986 1.723024,-5.153962"
     id="path5165"
     inkscape:connector-curvature="0"
     sodipodi:nodetypes="cc" />
  <path
     sodipodi:nodetypes="cc"
     inkscape:connector-curvature="0"
     id="path5167"
     d="m 48.464514,21.249959 c 2.109246,-0.260975 2.987203,-3.955128 2.039746,-6.073101"
     style="color:#000000;fill:none;stroke:#548617;stroke-width:0.99999994;stroke-miterlimit:4;stroke-dasharray:none;marker:none;visibility:visible;display:inline;overflow:visible;enable-background:accumulate;stroke-opacity:1" />
  <path
     sodipodi:nodetypes="cc"
     inkscape:connector-curvature="0"
     id="path5169"
     d="m 50.403563,23.112516 c 2.109246,-0.260973 3.38722,-2.619387 3.19881,-4.63562"
     style="color:#000000;fill:none;stroke:#548617;stroke-width:0.99999994;stroke-miterlimit:4;stroke-dasharray:none;marker:none;visibility:visible;display:inline;overflow:visible;enable-background:accumulate;stroke-opacity:1" />
  <path
     transform="matrix(-0.92233165,-0.34600265,-0.34628554,0.91928954,141.84822,31.106519)"
     d="m 100,31.5 a 6.5,8.5 0 1 1 -13,0 6.5,8.5 0 1 1 13,0 z"
     sodipodi:ry="8.5"
     sodipodi:rx="6.5"
     sodipodi:cy="31.5"
     sodipodi:cx="93.5"
     id="path5229"
     style="color:#000000;fill:#e2ecd9;fill-opacity:1;fill-rule:nonzero;stroke:none;stroke-width:2.28571415;marker:none;visibility:visible;display:inline;overflow:visible;enable-background:accumulate"
     sodipodi:type="arc" />
  <path
     transform="matrix(-0.97447954,-0.13079658,-0.13039099,0.97145778,140.55281,10.11942)"
     d="m 99.790436,34.389904 a 4.5078053,4.5078053 0 1 1 -9.01561,0 4.5078053,4.5078053 0 1 1 9.01561,0 z"
     sodipodi:ry="4.5078053"
     sodipodi:rx="4.5078053"
     sodipodi:cy="34.389904"
     sodipodi:cx="95.282631"
     id="path5173"
     style="color:#000000;fill:#2a3c1f;fill-opacity:1;fill-rule:nonzero;stroke:none;stroke-width:2.28571415;marker:none;visibility:visible;display:inline;overflow:visible;enable-background:accumulate"
     sodipodi:type="arc" />
  <path
     transform="matrix(-0.43848633,-0.05885452,-0.05867202,0.43712664,87.015563,19.828226)"
     d="m 99.790436,34.389904 a 4.5078053,4.5078053 0 1 1 -9.01561,0 4.5078053,4.5078053 0 1 1 9.01561,0 z"
     sodipodi:ry="4.5078053"
     sodipodi:rx="4.5078053"
     sodipodi:cy="34.389904"
     sodipodi:cx="95.282631"
     id="path5175"
     style="color:#000000;fill:#e2ecd9;fill-opacity:1;fill-rule:nonzero;stroke:none;stroke-width:2.28571415;marker:none;visibility:visible;display:inline;overflow:visible;enable-background:accumulate"
     sodipodi:type="arc" />
  <path
     sodipodi:type="arc"
     style="color:#000000;fill:#abff5e;fill-opacity:0.70661896;fill-rule:nonzero;stroke:none;stroke-width:2.28571415;marker:none;visibility:visible;display:inline;overflow:visible;enable-background:accumulate"
     id="path5177"
     sodipodi:cx="95.282631"
     sodipodi:cy="34.389904"
     sodipodi:rx="4.5078053"
     sodipodi:ry="4.5078053"
     d="m 99.790436,34.389904 a 4.5078053,4.5078053 0 1 1 -9.01561,0 4.5078053,4.5078053 0 1 1 9.01561,0 z"
     transform="matrix(-0.16561707,-0.02222946,-0.02216053,0.16510352,59.760236,30.377925)" />
  <path
     style="color:#000000;fill:#2a8200;fill-opacity:0.30411449;stroke:none;stroke-width:2.28571415;marker:none;visibility:visible;display:inline;overflow:visible;enable-background:accumulate;opacity:1;stroke-linecap:butt;stroke-linejoin:miter;stroke-miterlimit:4;stroke-dasharray:none;stroke-dashoffset:0;stroke-opacity:1"
     d="m 31.582434,39.521687 c -6.264166,2.157145 -9.311641,1.522544 -8.920591,2.901576 1.312792,4.629545 21.88648,18.8678 24.900436,17.26819 2.015288,-1.069582 -2.095992,-14.921717 -4.65764,-18.302406 -2.016974,-2.661869 -5.058039,-4.024503 -11.322205,-1.86736 z"
     id="path3815"
     inkscape:connector-curvature="0"
     sodipodi:nodetypes="sssss" />
  <path
     style="color:#000000;fill:#d39518;fill-opacity:1;stroke:none;stroke-width:1;marker:none;visibility:visible;display:inline;overflow:visible;enable-background:accumulate"
     d="M 32.625 36.25 C 25.878022 36.25 22.4375 39.702567 22.4375 41.875 C 22.4375 44.634087 30.301524 53.9375 32.625 53.9375 C 34.948476 53.9375 42.8125 44.634087 42.8125 41.875 C 42.8125 39.702567 39.371978 36.25 32.625 36.25 z "
     id="path5084" />
  <path
     style="color:#000000;display:inline;overflow:visible;visibility:visible;fill:#ffc11d;fill-opacity:1;stroke:none;stroke-width:1.14435196;marker:none;enable-background:accumulate"
     d="M 32.625 36.25 C 25.878022 36.25 22.4375 39.702567 22.4375 41.875 C 22.4375 43.704679 25.892914 48.401283 28.900391 51.365234 C 29.471863 51.905149 30.034368 52.408615 30.558594 52.832031 C 30.812886 53.037423 31.055313 53.213592 31.292969 53.380859 C 31.823192 53.724883 32.2875 53.9375 32.625 53.9375 L 32.625 36.25 z "
     id="path5111" />
</svg>

<svg xmlns="http://www.w3.org/2000/svg" viewBox="0 0 64 64" xmlns:xlink="http://www.w3.org/1999/xlink"><defs><path id="1" d="m99.79044 34.389904a4.507805 4.507805 0 1 1 -9.01561 0 4.507805 4.507805 0 1 1 9.01561 0" color="#000"/></defs><g color="#000"><path d="m0 4v30 28l2 2h30 30l2-2v-28-30h-32-32" fill="#8ac028"/><path d="m2 0l-2 1v3h32 32v-3l-2-1h-30-30" fill="#c1ff49"/></g><path d="m0 3v3l2-2" fill="#d0ff75"/><path d="m64 6l-2-2 2-1z" fill="#a7e139"/><g color="#000"><path d="m27.17 8c2.261-4.608 5.723-4.515 10.487-5.945-1.924 2.764-5.171 2.953-5.581 6.795" fill="#2a8200" fill-opacity=".304"/><path d="m27.17 8c2.261-4.608 3.723-6.515 8.487-7.945-1.924 2.764-3.171 4.953-3.581 8.795" fill="#8ac028"/><path d="m27.784 9.62c5.872-4.03 14.68-3.727 22.846-2.029-4.03 2.243-10.249 2.065-13.461 6.14" fill="#2a8200" fill-opacity=".304"/><path d="m27.784 9.62c5.872-4.03 12.68-5.727 20.846-4.03-4.03 2.243-8.249 4.065-11.461 8.14" fill="#8ac028"/><g fill="none" stroke="#548617"><path d="m17.969 20.667c-2.109-.261-2.67-3.036-1.723-5.154"/><path d="m15.535 21.25c-2.109-.261-2.987-3.955-2.04-6.073"/><path d="m13.596 23.11c-2.109-.261-3.387-2.619-3.199-4.636"/></g></g><path d="m100 31.5a6.5 8.5 0 1 1 -13 0 6.5 8.5 0 1 1 13 0" transform="matrix(.92233-.346.34629.91929-77.848 31.11)" fill="#e2ecd9" color="#000" id="0"/><use transform="matrix(.97448-.1308.13039.97146-76.55 10.119)" fill="#2a3c1f" xlink:href="#1"/><use transform="matrix(.43849-.05885.05867.43713-23.02 19.828)" fill="#e2ecd9" xlink:href="#1"/><use transform="matrix(.16562-.02223.02216.1651 4.24 30.378)" fill="#abff5e" fill-opacity=".707" xlink:href="#1"/><g fill="none" stroke="#548617" color="#000"><path d="m46.03 20.667c2.109-.261 2.67-3.036 1.723-5.154"/><path d="m48.46 21.25c2.109-.261 2.987-3.955 2.04-6.073"/><path d="m50.4 23.11c2.109-.261 3.387-2.619 3.199-4.636"/></g><use transform="matrix(-1 0 0 1 64 0)" xlink:href="#0"/><use transform="matrix(-.97448-.1308-.13039.97146 140.55 10.119)" fill="#2a3c1f" xlink:href="#1"/><use transform="matrix(-.43849-.05885-.05867.43713 87.02 19.828)" fill="#e2ecd9" xlink:href="#1"/><use transform="matrix(-.16562-.02223-.02216.1651 59.76 30.378)" fill="#abff5e" fill-opacity=".707" xlink:href="#1"/><g color="#000"><path d="m31.582 39.522c-6.264 2.157-9.312 1.523-8.921 2.902 1.313 4.63 21.886 18.868 24.9 17.268 2.02-1.07-2.096-14.922-4.658-18.302-2.02-2.662-5.058-4.02-11.322-1.867" fill="#2a8200" fill-opacity=".304"/><path d="m32.625 36.25c-6.747 0-10.188 3.453-10.188 5.625 0 2.759 7.864 12.06 10.188 12.06 2.323 0 10.188-9.303 10.188-12.06 0-2.172-3.441-5.625-10.188-5.625" fill="#d39518"/><path d="m32.625 36.25c-6.747 0-10.188 3.453-10.188 5.625 0 1.83 3.455 6.526 6.463 9.49.571.54 1.134 1.043 1.658 1.467.254.205.497.382.734.549.53.344.995.557 1.332.557v-17.688" fill="#ffc11d"/></g></svg>
